X: 24727
T: Mad Chicken
R: reel
M: 4/4
K: Amixolydian
eage d2 ed|cAAc BGGB|ABcd efgf|eaag edcd|
eage dged|cAAc BGGB|ABcd efge|aged cA A2:|
|:cdef gfed|eaaf gfed|cdef gebe|gede ceBe|
cdef g2 gf|eaaf g2 ga|bgga z f gf|edcd edcA:|

